X: 43474
T: Yellow Horse, The
R: jig
M: 6/8
K: Gmajor
g2e|:dBA ~G3|G2A ~B2A|GDE G2B|~d3 ege|
dBA ~G3|G2A ~B2d|geg dec|1 Bdd g2e:|2 Bdd d2e||
|:=f3 ~e2d|e2e edB|d2e =fed|egf ~g3|
bab g2d|egd edB|~g3 dec|1 Bdd d2e:|2 Bdd g2e||

